; generated by Slic3r 1.3.0 on 2021-08-29 at 19:19:37

; external perimeters extrusion width = 0.55mm (4.37mm^3/s)
; perimeters extrusion width = 0.70mm (11.44mm^3/s)
; infill extrusion width = 0.62mm (13.45mm^3/s)
; solid infill extrusion width = 0.70mm (3.81mm^3/s)
; top infill extrusion width = 0.70mm (2.86mm^3/s)

M107
M104 S200 ; set temperature
G28 ; home all axes
G1 Z5 F5000 ; lift nozzle

; Filament gcode

M109 S200 ; set temperature and wait for it to be reached
G21 ; set units to millimeters
G90 ; use absolute coordinates
M82 ; use absolute distances for extrusion
G92 E0
G1 Z0.350 F7800.000
G1 E-2.00000 F2400.00000
G92 E0
G1 X85.312 Y83.490 F7800.000
G1 E2.00000 F2400.00000
G1 F1800
G1 X87.651 Y81.125 E2.10293
G1 X88.567 Y80.271 E2.14170
G1 X89.679 Y79.312 E2.18711
G1 X91.686 Y77.733 E2.26613
G1 X95.528 Y74.868 E2.41440
G1 X95.987 Y74.568 E2.43140
G1 X96.429 Y74.311 E2.44722
G1 X97.122 Y73.980 E2.47096
G1 X97.714 Y73.755 E2.49057
G1 X98.344 Y73.578 E2.51082
G1 X98.897 Y73.473 E2.52823
G1 X99.498 Y73.406 E2.54693
G1 X99.980 Y73.389 E2.56186
G1 X100.354 Y73.399 E2.57344
G1 X101.020 Y73.465 E2.59415
G1 X101.584 Y73.569 E2.61189
G1 X102.132 Y73.716 E2.62944
G1 X102.839 Y73.974 E2.65272
G1 X103.087 Y74.085 E2.66113
G1 X103.625 Y74.362 E2.67986
G1 X104.248 Y74.745 E2.70251
G1 X109.112 Y78.289 E2.88869
G1 X111.057 Y79.865 E2.96616
G1 X112.652 Y81.278 E3.03208
G1 X113.876 Y82.435 E3.08419
G1 X114.806 Y83.378 E3.12518
G1 X116.184 Y84.875 E3.18814
G1 X117.820 Y86.717 E3.26437
G1 X118.736 Y87.779 E3.30776
G1 X119.488 Y88.724 E3.34514
G1 X120.342 Y89.903 E3.39019
G1 X121.077 Y91.000 E3.43102
G1 X122.019 Y92.490 E3.48556
G1 X122.992 Y94.146 E3.54500
G1 X124.220 Y96.468 E3.62627
G1 X124.845 Y97.798 E3.67174
G1 X125.417 Y99.163 E3.71755
G1 X125.870 Y100.407 E3.75852
G1 X126.233 Y101.568 E3.79613
G1 X126.547 Y102.751 E3.83401
G1 X126.814 Y103.957 E3.87225
G1 X127.035 Y105.181 E3.91073
G1 X127.203 Y106.403 E3.94887
G1 X127.302 Y107.481 E3.98236
G1 X127.336 Y108.128 E4.00242
G1 X127.352 Y108.996 E4.02927
G1 X127.336 Y109.793 E4.05396
G1 X127.298 Y110.512 E4.07623
G1 X127.195 Y111.626 E4.11083
G1 X127.016 Y112.764 E4.14650
G1 X126.786 Y113.750 E4.17780
G1 X126.593 Y114.413 E4.19918
G1 X126.369 Y115.079 E4.22091
G1 X125.922 Y116.218 E4.25879
G1 X125.491 Y117.155 E4.29069
G1 X124.860 Y118.332 E4.33203
G1 X124.244 Y119.309 E4.36773
G1 X123.544 Y120.265 E4.40440
G1 X122.882 Y121.050 E4.43619
G1 X122.074 Y121.879 E4.47199
G1 X121.274 Y122.587 E4.50504
G1 X120.696 Y123.040 E4.52777
G1 X120.103 Y123.462 E4.55028
G1 X119.131 Y124.069 E4.58575
G1 X118.501 Y124.415 E4.60800
G1 X117.861 Y124.731 E4.63008
G1 X117.218 Y125.016 E4.65185
G1 X116.581 Y125.269 E4.67305
G1 X115.320 Y125.694 E4.71422
G1 X114.697 Y125.869 E4.73423
G1 X113.873 Y126.067 E4.76047
G1 X112.627 Y126.296 E4.79966
G1 X111.363 Y126.439 E4.83901
G1 X110.208 Y126.488 E4.87480
G1 X89.431 Y126.608 E5.51766
G1 X88.510 Y126.562 E5.54620
G1 X87.915 Y126.499 E5.56471
G1 X87.044 Y126.359 E5.59202
G1 X86.200 Y126.167 E5.61881
G1 X85.475 Y125.959 E5.64213
G1 X84.578 Y125.653 E5.67147
G1 X83.730 Y125.324 E5.69961
G1 X82.857 Y124.949 E5.72899
G1 X81.888 Y124.491 E5.76216
G1 X80.957 Y123.999 E5.79476
G1 X80.237 Y123.572 E5.82065
G1 X79.613 Y123.163 E5.84373
G1 X79.046 Y122.755 E5.86534
G1 X78.252 Y122.117 E5.89687
G1 X77.638 Y121.569 E5.92233
G1 X76.927 Y120.861 E5.95336
G1 X76.284 Y120.130 E5.98349
G1 X75.637 Y119.279 E6.01657
G1 X75.077 Y118.420 E6.04830
G1 X74.730 Y117.812 E6.06997
G1 X74.438 Y117.240 E6.08983
G1 X74.070 Y116.406 E6.11803
G1 X73.695 Y115.368 E6.15219
G1 X73.459 Y114.574 E6.17782
G1 X73.045 Y112.924 E6.23046
G1 X72.840 Y111.838 E6.26464
G1 X72.743 Y111.093 E6.28790
G1 X72.658 Y109.859 E6.32617
G1 X72.650 Y108.887 E6.35624
G1 X72.713 Y107.487 E6.39959
G1 X72.808 Y106.503 E6.43018
G1 X72.951 Y105.514 E6.46110
G1 X73.154 Y104.477 E6.49379
G1 X73.468 Y103.205 E6.53434
G1 X73.833 Y101.928 E6.57543
G1 X74.410 Y100.102 E6.63467
G1 X74.805 Y98.973 E6.67170
G1 X75.161 Y98.060 E6.70201
G1 X75.612 Y97.035 E6.73666
G1 X76.076 Y96.092 E6.76918
G1 X77.552 Y93.381 E6.86467
G1 X78.247 Y92.186 E6.90747
G1 X78.885 Y91.187 E6.94414
G1 X79.814 Y89.897 E6.99331
G1 X80.631 Y88.863 E7.03408
G1 X83.090 Y85.886 E7.15359
G1 X85.260 Y83.544 E7.25235
G1 E5.25235 F2400.00000
G92 E0
G1 X100.000 Y111.621 F7800.000
G1 E2.00000 F2400.00000
G1 F1800
G1 X98.082 Y114.073 E2.09633
G1 X97.535 Y114.709 E2.12228
G1 X97.074 Y115.197 E2.14304
G1 X96.640 Y115.619 E2.16178
G1 X96.242 Y115.970 E2.17819
G1 X95.460 Y116.571 E2.20870
G1 X94.752 Y117.031 E2.23484
G1 X94.096 Y117.393 E2.25802
G1 X93.480 Y117.672 E2.27894
G1 X92.872 Y117.891 E2.29895
G1 X92.248 Y118.064 E2.31897
G1 X91.225 Y118.263 E2.35120
G1 X90.232 Y118.369 E2.38211
G1 X89.643 Y118.385 E2.40036
G1 X89.132 Y118.360 E2.41619
G1 X88.672 Y118.296 E2.43056
G1 X88.215 Y118.192 E2.44506
G1 X87.725 Y118.042 E2.46092
G1 X86.905 Y117.736 E2.48799
G1 X86.308 Y117.484 E2.50805
G1 X85.647 Y117.175 E2.53060
G1 X85.056 Y116.869 E2.55120
G1 X84.673 Y116.646 E2.56494
G1 X84.050 Y116.226 E2.58817
G1 X83.540 Y115.816 E2.60841
G1 X83.085 Y115.396 E2.62758
G1 X82.671 Y114.947 E2.64649
G1 X82.510 Y114.746 E2.65443
G1 X82.147 Y114.217 E2.67428
G1 X82.010 Y113.983 E2.68269
G1 X81.771 Y113.503 E2.69928
G1 X81.590 Y113.040 E2.71465
G1 X81.405 Y112.450 E2.73379
G1 X81.059 Y111.068 E2.77786
G1 X80.982 Y110.666 E2.79053
G1 X80.896 Y109.921 E2.81375
G1 X80.873 Y109.074 E2.83995
G1 X80.922 Y108.000 E2.87322
G1 X80.985 Y107.386 E2.89232
G1 X81.075 Y106.799 E2.91070
G1 X81.207 Y106.151 E2.93114
G1 X81.387 Y105.428 E2.95422
G1 X81.687 Y104.372 E2.98818
G1 X82.191 Y102.767 E3.04024
G1 X82.479 Y101.933 E3.06753
G1 X82.809 Y101.087 E3.09563
G1 X83.103 Y100.431 E3.11786
G1 X83.423 Y99.790 E3.14004
G1 X84.671 Y97.499 E3.22077
G1 X85.337 Y96.356 E3.26169
G1 X85.766 Y95.693 E3.28612
G1 X86.296 Y94.960 E3.31412
G1 X86.983 Y94.087 E3.34849
G1 X89.401 Y91.161 E3.46592
G1 X91.183 Y89.249 E3.54679
G1 X93.309 Y87.094 E3.64046
G1 X93.967 Y86.475 E3.66842
G1 X94.939 Y85.636 E3.70814
G1 X96.693 Y84.258 E3.77717
G1 X99.978 Y81.799 E3.90412
G1 X104.223 Y84.903 E4.06684
G1 X105.828 Y86.214 E4.13096
G1 X107.020 Y87.271 E4.18025
G1 X108.203 Y88.390 E4.23063
G1 X108.913 Y89.115 E4.26202
G1 X110.044 Y90.348 E4.31381
G1 X112.351 Y92.963 E4.42171
G1 X112.867 Y93.603 E4.44712
G1 X113.536 Y94.520 E4.48224
G1 X114.137 Y95.414 E4.51558
G1 X115.052 Y96.861 E4.56856
G1 X115.875 Y98.268 E4.61900
G1 X116.805 Y100.026 E4.68055
G1 X117.288 Y101.044 E4.71541
G1 X117.717 Y102.053 E4.74932
G1 X118.044 Y102.938 E4.77852
G1 X118.302 Y103.748 E4.80483
G1 X118.532 Y104.597 E4.83202
G1 X118.732 Y105.485 E4.86019
G1 X118.898 Y106.379 E4.88834
G1 X119.021 Y107.240 E4.91525
G1 X119.091 Y107.950 E4.93733
G1 X119.127 Y109.051 E4.97140
G1 X119.088 Y110.011 E5.00113
G1 X118.987 Y110.945 E5.03021
G1 X118.936 Y111.227 E5.03907
G1 X118.766 Y111.882 E5.06000
G1 X118.497 Y112.652 E5.08523
G1 X118.340 Y113.030 E5.09789
G1 X117.940 Y113.858 E5.12636
G1 X117.471 Y114.643 E5.15466
G1 X117.268 Y114.933 E5.16561
G1 X116.826 Y115.482 E5.18742
G1 X116.339 Y115.982 E5.20901
G1 X116.114 Y116.181 E5.21828
G1 X115.539 Y116.620 E5.24068
G1 X115.278 Y116.791 E5.25035
G1 X114.627 Y117.159 E5.27348
G1 X114.328 Y117.304 E5.28377
G1 X113.620 Y117.595 E5.30742
G1 X112.889 Y117.836 E5.33124
G1 X111.824 Y118.092 E5.36513
G1 X111.132 Y118.200 E5.38682
G1 X110.157 Y118.262 E5.41705
G1 X109.538 Y118.242 E5.43621
G1 X108.561 Y118.124 E5.46664
G1 X108.175 Y118.052 E5.47882
G1 X107.232 Y117.829 E5.50879
G1 X106.382 Y117.567 E5.53632
G1 X105.723 Y117.300 E5.55831
G1 X105.251 Y117.052 E5.57480
G1 X104.748 Y116.726 E5.59335
G1 X104.024 Y116.178 E5.62145
G1 X103.324 Y115.557 E5.65041
G1 X102.931 Y115.159 E5.66770
G1 X102.471 Y114.655 E5.68882
G1 X101.919 Y114.008 E5.71513
G1 X100.047 Y111.680 E5.80757
G1 X100.007 Y112.627 F7800.000
G1 F1800
G1 X98.565 Y114.470 E5.87997
G1 X97.999 Y115.127 E5.90680
G1 X97.520 Y115.636 E5.92844
G1 X97.064 Y116.078 E5.94806
G1 X96.640 Y116.452 E5.96558
G1 X95.822 Y117.082 E5.99753
G1 X95.073 Y117.567 E6.02512
G1 X94.377 Y117.952 E6.04974
G1 X93.715 Y118.252 E6.07222
G1 X93.061 Y118.487 E6.09373
G1 X92.391 Y118.672 E6.11522
G1 X91.319 Y118.881 E6.14905
G1 X90.274 Y118.993 E6.18154
G1 X89.636 Y119.010 E6.20130
G1 X89.073 Y118.982 E6.21873
G1 X88.559 Y118.911 E6.23479
G1 X88.054 Y118.796 E6.25083
G1 X87.524 Y118.634 E6.26797
G1 X86.674 Y118.317 E6.29605
G1 X86.054 Y118.055 E6.31687
G1 X85.371 Y117.736 E6.34018
G1 X84.755 Y117.416 E6.36165
G1 X84.341 Y117.175 E6.37650
G1 X83.679 Y116.729 E6.40118
G1 X83.132 Y116.290 E6.42289
G1 X82.642 Y115.838 E6.44351
G1 X82.196 Y115.354 E6.46387
G1 X82.008 Y115.119 E6.47319
G1 X81.619 Y114.553 E6.49446
G1 X81.459 Y114.280 E6.50423
G1 X81.199 Y113.756 E6.52232
G1 X81.000 Y113.248 E6.53921
G1 X80.803 Y112.619 E6.55960
G1 X80.448 Y111.203 E6.60479
G1 X80.364 Y110.760 E6.61871
G1 X80.272 Y109.965 E6.64349
G1 X80.248 Y109.068 E6.67125
G1 X80.298 Y107.954 E6.70577
G1 X80.365 Y107.306 E6.72590
G1 X80.460 Y106.689 E6.74523
G1 X80.597 Y106.014 E6.76655
G1 X80.783 Y105.267 E6.79036
G1 X81.088 Y104.193 E6.82491
G1 X81.597 Y102.571 E6.87751
G1 X81.892 Y101.717 E6.90545
G1 X82.233 Y100.845 E6.93442
G1 X82.538 Y100.164 E6.95752
G1 X82.869 Y99.501 E6.98045
G1 X84.127 Y97.192 E7.06180
G1 X84.804 Y96.028 E7.10346
G1 X85.250 Y95.340 E7.12884
G1 X85.797 Y94.583 E7.15774
G1 X86.497 Y93.695 E7.19273
G1 X88.931 Y90.748 E7.31097
G1 X90.732 Y88.817 E7.39269
G1 X92.872 Y86.647 E7.48699
G1 X93.548 Y86.010 E7.51573
G1 X94.541 Y85.154 E7.55631
G1 X96.312 Y83.762 E7.62600
G1 X99.765 Y81.178 E7.75945
G1 X99.977 Y81.044 E7.76719
G1 X100.124 Y81.132 E7.77251
G1 X104.606 Y84.408 E7.94428
G1 X106.234 Y85.738 E8.00932
G1 X107.442 Y86.810 E8.05930
G1 X108.641 Y87.944 E8.11036
G1 X109.367 Y88.685 E8.14244
G1 X110.508 Y89.929 E8.19470
G1 X112.830 Y92.562 E8.30332
G1 X113.363 Y93.222 E8.32955
G1 X114.047 Y94.161 E8.36550
G1 X114.660 Y95.072 E8.39949
G1 X115.586 Y96.536 E8.45308
G1 X116.421 Y97.964 E8.50426
G1 X117.364 Y99.746 E8.56664
G1 X117.858 Y100.788 E8.60233
G1 X118.298 Y101.822 E8.63709
G1 X118.635 Y102.735 E8.66720
G1 X118.902 Y103.572 E8.69439
G1 X119.138 Y104.446 E8.72240
G1 X119.345 Y105.359 E8.75136
G1 X119.515 Y106.278 E8.78028
G1 X119.642 Y107.165 E8.80801
G1 X119.714 Y107.903 E8.83096
G1 X119.752 Y109.060 E8.86677
G1 X119.712 Y110.057 E8.89765
G1 X119.606 Y111.035 E8.92809
G1 X119.546 Y111.362 E8.93835
G1 X119.365 Y112.064 E8.96079
G1 X119.081 Y112.874 E8.98737
G1 X118.911 Y113.285 E9.00113
G1 X118.490 Y114.155 E9.03101
G1 X117.996 Y114.983 E9.06085
G1 X117.768 Y115.309 E9.07315
G1 X117.294 Y115.897 E9.09653
G1 X116.770 Y116.435 E9.11976
G1 X116.511 Y116.664 E9.13044
G1 X115.900 Y117.130 E9.15422
G1 X115.603 Y117.325 E9.16522
G1 X114.917 Y117.713 E9.18963
G1 X114.582 Y117.874 E9.20111
G1 X113.838 Y118.181 E9.22604
G1 X113.070 Y118.434 E9.25104
G1 X111.941 Y118.706 E9.28697
G1 X110.864 Y118.855 E9.32061
G1 X110.161 Y118.887 E9.34238
G1 X109.490 Y118.866 E9.36315
G1 X108.467 Y118.742 E9.39506
G1 X108.046 Y118.664 E9.40831
G1 X107.068 Y118.432 E9.43940
G1 X106.172 Y118.156 E9.46841
G1 X105.460 Y117.867 E9.49218
G1 X104.936 Y117.592 E9.51051
G1 X104.390 Y117.238 E9.53063
G1 X103.633 Y116.667 E9.55997
G1 X102.889 Y116.005 E9.59077
G1 X102.003 Y115.069 E9.63067
G1 X101.438 Y114.407 E9.65760
G1 X100.054 Y112.685 E9.72594
G1 X100.013 Y113.633 F7800.000
G1 F1800
G1 X99.048 Y114.866 E9.77441
G1 X98.464 Y115.546 E9.80213
G1 X97.965 Y116.075 E9.82465
G1 X97.489 Y116.536 E9.84515
G1 X97.038 Y116.935 E9.86378
G1 X96.183 Y117.592 E9.89715
G1 X95.395 Y118.103 E9.92620
G1 X94.657 Y118.511 E9.95227
G1 X93.950 Y118.832 E9.97629
G1 X93.250 Y119.083 E9.99932
G1 X92.535 Y119.281 E10.02228
G1 X91.412 Y119.500 E10.05769
G1 X90.316 Y119.617 E10.09178
G1 X89.629 Y119.636 E10.11305
G1 X89.015 Y119.605 E10.13208
G1 X88.447 Y119.526 E10.14982
G1 X87.893 Y119.400 E10.16740
G1 X87.323 Y119.226 E10.18583
G1 X86.443 Y118.898 E10.21491
G1 X85.800 Y118.626 E10.23650
G1 X85.095 Y118.297 E10.26057
G1 X84.454 Y117.964 E10.28291
G1 X84.008 Y117.705 E10.29886
G1 X83.308 Y117.233 E10.32499
G1 X82.724 Y116.764 E10.34817
G1 X82.200 Y116.280 E10.37024
G1 X81.722 Y115.762 E10.39206
G1 X81.506 Y115.492 E10.40276
G1 X81.091 Y114.888 E10.42543
G1 X80.909 Y114.577 E10.43658
G1 X80.628 Y114.010 E10.45616
G1 X80.410 Y113.456 E10.47458
G1 X80.201 Y112.789 E10.49620
G1 X79.837 Y111.337 E10.54252
G1 X79.746 Y110.855 E10.55770
G1 X79.648 Y110.009 E10.58403
G1 X79.623 Y109.062 E10.61335
G1 X79.675 Y107.907 E10.64912
G1 X79.745 Y107.227 E10.67028
G1 X79.844 Y106.579 E10.69056
G1 X79.987 Y105.876 E10.71277
G1 X80.179 Y105.106 E10.73731
G1 X80.489 Y104.014 E10.77245
G1 X81.004 Y102.375 E10.82559
G1 X81.306 Y101.502 E10.85419
G1 X81.656 Y100.604 E10.88401
G1 X81.973 Y99.896 E10.90799
G1 X82.315 Y99.212 E10.93167
G1 X83.582 Y96.885 E11.01364
G1 X84.272 Y95.701 E11.05603
G1 X84.734 Y94.987 E11.08237
G1 X85.298 Y94.207 E11.11216
G1 X86.010 Y93.302 E11.14777
G1 X88.461 Y90.336 E11.26682
G1 X90.281 Y88.384 E11.34939
G1 X92.435 Y86.200 E11.44432
G1 X93.130 Y85.546 E11.47384
G1 X94.144 Y84.671 E11.51528
G1 X95.932 Y83.266 E11.58565
G1 X99.410 Y80.663 E11.72007
G1 X99.770 Y80.435 E11.73326
G1 X99.894 Y80.382 E11.73741
G1 X99.989 Y80.367 E11.74039
G1 X100.115 Y80.398 E11.74439
G1 X100.470 Y80.611 E11.75722
G1 X104.988 Y83.914 E11.93038
G1 X106.639 Y85.262 E11.99633
G1 X107.864 Y86.349 E12.04701
G1 X109.079 Y87.498 E12.09875
G1 X109.820 Y88.255 E12.13151
G1 X110.972 Y89.510 E12.18424
G1 X113.310 Y92.161 E12.29360
G1 X113.858 Y92.842 E12.32065
G1 X114.559 Y93.802 E12.35743
G1 X115.184 Y94.731 E12.39206
G1 X116.120 Y96.211 E12.44626
G1 X116.967 Y97.660 E12.49819
G1 X117.922 Y99.466 E12.56140
G1 X118.428 Y100.532 E12.59791
G1 X118.879 Y101.592 E12.63353
G1 X119.226 Y102.531 E12.66454
G1 X119.502 Y103.396 E12.69260
G1 X119.745 Y104.296 E12.72145
G1 X119.957 Y105.233 E12.75119
G1 X120.131 Y106.177 E12.78089
G1 X120.262 Y107.091 E12.80944
G1 X120.337 Y107.856 E12.83325
G1 X120.378 Y109.069 E12.87080
G1 X120.335 Y110.104 E12.90284
G1 X120.225 Y111.125 E12.93463
G1 X120.157 Y111.496 E12.94630
G1 X119.963 Y112.246 E12.97025
G1 X119.665 Y113.097 E12.99817
G1 X119.481 Y113.541 E13.01303
G1 X119.041 Y114.452 E13.04432
G1 X118.521 Y115.322 E13.07570
G1 X118.268 Y115.684 E13.08936
G1 X117.762 Y116.312 E13.11431
G1 X117.202 Y116.887 E13.13916
G1 X116.909 Y117.147 E13.15127
G1 X116.262 Y117.640 E13.17643
G1 X115.929 Y117.859 E13.18875
G1 X115.207 Y118.267 E13.21444
G1 X114.837 Y118.445 E13.22712
G1 X114.055 Y118.767 E13.25331
G1 X113.251 Y119.032 E13.27949
G1 X112.855 Y119.142 E13.29221
G1 X112.058 Y119.320 E13.31749
G1 X111.292 Y119.440 E13.34146
G1 X110.910 Y119.479 E13.35333
G1 X110.166 Y119.513 E13.37640
G1 X109.443 Y119.490 E13.39878
G1 X108.372 Y119.360 E13.43216
G1 X107.916 Y119.275 E13.44649
G1 X106.903 Y119.036 E13.47870
G1 X105.962 Y118.745 E13.50919
G1 X105.197 Y118.435 E13.53474
G1 X104.620 Y118.132 E13.55489
G1 X104.031 Y117.751 E13.57660
G1 X103.243 Y117.155 E13.60717
G1 X102.859 Y116.830 E13.62272
G1 X102.454 Y116.454 E13.63983
G1 X102.025 Y116.020 E13.65871
G1 X101.534 Y115.483 E13.68123
G1 X100.956 Y114.805 E13.70877
G1 X100.060 Y113.691 E13.75301
G1 X99.643 Y113.297 F7800.000
G1 E11.75301 F2400.00000
G92 E0
G1 X115.663 Y115.774 F7800.000
G1 E2.00000 F2400.00000
G1 F1800
G1 X116.601 Y114.824 E2.04184
G1 X117.011 Y114.315 E2.06235
G1 X117.189 Y114.060 E2.07208
G1 X117.632 Y113.318 E2.09918
G1 X118.015 Y112.527 E2.12675
G1 X113.381 Y117.161 E2.33224
G1 X113.165 Y117.249 E2.33955
G1 X112.058 Y117.587 E2.37584
G1 X118.488 Y111.157 E2.66097
G1 X118.611 Y110.613 E2.67848
G1 X118.669 Y110.081 E2.69523
G1 X110.949 Y117.801 E3.03753
G1 X109.980 Y117.875 E3.06801
G1 X118.732 Y109.122 E3.45611
G1 X118.735 Y108.224 E3.48428
G1 X109.124 Y117.835 E3.91048
G1 X108.330 Y117.734 E3.93558
G1 X118.675 Y107.389 E4.39429
G1 X118.575 Y106.593 E4.41944
G1 X107.595 Y117.573 E4.90633
G1 X106.886 Y117.386 E4.92931
G1 X118.448 Y105.825 E5.44199
G1 X118.298 Y105.079 E5.46584
